X:650
T:Reel 650
M:4/4
K:Amaj
L:1/8
 (3EFG |A2CD E2BA| (3dcB cA BAFG|AECE A,2EC|DFED CA,A,B,|AcBA A2BG|FBBc BGEG|ABcd efec|dBGB A2|EE| (3cdc Ac  (3cdc Ac| (3BcB GB BEBG|Acec Acec| (3dcB GA B2cB|Acfc ecBA|GBBG BB, (3B,FB, |Acde fdBG|AcBA GEFG|
